X: 4662
T: Boy In The Gap, The
R: reel
M: 4/4
K: Dmajor
FE|D2FA dedc|~A2GE =cEGE|EDFA dedc|~A2GE EDFE|
D2FA dedc|~A2GE =cEGE|EDFA dfed|cAGE ED||
Dg|effg fedf|egfe edcA|~A2 (3Bcd edcd|eaag eaag|
effg fedf|~g2fg edcA|~A2 (3Bcd (3ege dc|ABGE ED:|
FA|df~f2 df~f2|ceef (3gfe ce|dffe ~f2fg|afge fdde|
fdec dcAF|G2AF GFEF|DEFA dedc|ABGE ED:|

